assets/svg/apps-o.svg

<?xml version="1.0" encoding="UTF-8"?>
<svg width="1000px" height="1000px" viewBox="0 0 1000 1000" version="1.1" xmlns="http://www.w3.org/2000/svg" xmlns:xlink="http://www.w3.org/1999/xlink">
    <!-- Generator: sketchtool 52.4 (67378) - http://www.bohemiancoding.com/sketch -->
    <title>apps-o</title>
    <desc>Created with sketchtool.</desc>
    <g id="新版图标" stroke="none" stroke-width="1" fill="none" fill-rule="evenodd">
        <g id="apps-o" fill="#323233" fill-rule="nonzero">
            <g id="直角-营销应用-线">
                <path d="M708.333333,166.666667 C639.29774,166.666667 583.333333,222.631073 583.333333,291.666667 C583.333333,360.70226 639.29774,416.666667 708.333333,416.666667 C777.368927,416.666667 833.333333,360.70226 833.333333,291.666667 C833.333333,222.631073 777.368927,166.666667 708.333333,166.666667 Z M708.333333,111.111111 C808.051413,111.111111 888.888889,191.948587 888.888889,291.666667 C888.888889,391.384746 808.051413,472.222222 708.333333,472.222222 C608.615254,472.222222 527.777778,391.384746 527.777778,291.666667 C527.777778,191.948587 608.615254,111.111111 708.333333,111.111111 Z M166.666667,166.666667 L166.666667,416.666667 L416.666667,416.666667 L416.666667,166.666667 L166.666667,166.666667 Z M112.111111,111.111111 L472.222222,111.111111 L472.222222,472.222222 L111.111111,472.222222 L111.111111,112.111111 C111.111111,111.558826 111.558826,111.111111 112.111111,111.111111 Z M166.666667,583.333333 L166.666667,833.333333 L416.666667,833.333333 L416.666667,583.333333 L166.666667,583.333333 Z M111.111111,527.777778 L472.222222,527.777778 L472.222222,888.888889 L112.111111,888.888889 C111.558826,888.888889 111.111111,888.441174 111.111111,887.888889 L111.111111,527.777778 Z M583.333333,583.333333 L583.333333,833.333333 L833.333333,833.333333 L833.333333,583.333333 L583.333333,583.333333 Z M527.777778,527.777778 L888.888889,527.777778 L888.888889,887.888889 C888.888889,888.441174 888.441174,888.888889 887.888889,888.888889 L527.777778,888.888889 L527.777778,527.777778 Z" id="Rectangle-18-Copy"></path>
            </g>
        </g>
    </g>
</svg>

<svg width="1000" height="1000" xmlns="http://www.w3.org/2000/svg"><path d="M708.333 166.667c-69.035 0-125 55.964-125 125 0 69.035 55.965 125 125 125 69.036 0 125-55.965 125-125 0-69.036-55.964-125-125-125zm0-55.556c99.718 0 180.556 80.838 180.556 180.556 0 99.718-80.838 180.555-180.556 180.555-99.718 0-180.555-80.837-180.555-180.555S608.615 111.11 708.333 111.11zm-541.666 55.556v250h250v-250h-250zM112.11 111.11h360.111v361.111h-361.11v-360.11a1 1 0 0 1 1-1zm54.556 472.222v250h250v-250h-250zm-55.556-55.555h361.111v361.11h-360.11a1 1 0 0 1-1-1v-360.11zm472.222 55.555v250h250v-250h-250zm-55.555-55.555h361.11v360.11a1 1 0 0 1-1 1h-360.11v-361.11z" fill="#323233" fill-rule="nonzero"/></svg>
